assets/icons/uEA33-careers-fair.svg

<?xml version="1.0"?>
<svg version="1.1" xmlns="http://www.w3.org/2000/svg" xmlns:xlink="http://www.w3.org/1999/xlink" width="175" height="175">
    <desc iVinci="yes" version="4.6" gridStep="20" showGrid="no" snapToGrid="no" codePlatform="0"/>
    <g id="Layer1" name="Layer 2" opacity="1">
        <g id="Shape1">
            <desc shapeID="1" type="0" basicInfo-basicType="4" basicInfo-roundedRectRadius="12" basicInfo-polygonSides="6" basicInfo-starPoints="5" bounding="rect(-86.4938,-86.6314,172.988,173.263)" text="" font-familyName="Helvetica" font-pixelSize="20" font-bold="0" font-underline="0" font-alignment="1" strokeStyle="0" markerStart="0" markerEnd="0" shadowEnabled="0" shadowOffsetX="0" shadowOffsetY="2" shadowBlur="4" shadowOpacity="160" blurEnabled="0" blurRadius="4" transform="matrix(1,0,0,1,87.4564,87.3189)" pers-center="0,0" pers-size="0,0" pers-start="0,0" pers-end="0,0" locked="0" mesh="" flag=""/>
            <path id="shapePath1" d="M0.962585,87.3189 C0.962585,39.4737 39.6872,0.687531 87.4564,0.687531 C135.226,0.687546 173.95,39.4737 173.95,87.3189 C173.95,135.164 135.226,173.95 87.4564,173.95 C39.6872,173.95 0.96257,135.164 0.962585,87.3189 Z" style="stroke:url(#patternStroke1);stroke-width:0;stroke-linejoin:miter;stroke-miterlimit:2;stroke-linecap:butt;fill-rule:evenodd;fill:#000000;fill-opacity:1;"/><defs><pattern id="patternStroke1" patternUnits="userSpaceOnUse" x="0" y="0" width="0" height="0" patternTransform="matrix(1,0,0,1,87.4564,87.3189)"><image id="patternImagepatternStroke1_" x="0" y="0" width="0" height="0" xlink:href="data:image/png;base64,"/></pattern></defs>
        </g>
        <g id="Shape2">
            <desc shapeID="2" type="0" basicInfo-basicType="0" basicInfo-roundedRectRadius="12" basicInfo-polygonSides="6" basicInfo-starPoints="5" bounding="rect(-24.545,-36.3,49.09,72.6)" text="" font-familyName="" font-pixelSize="20" font-bold="0" font-underline="0" font-alignment="1" strokeStyle="0" markerStart="0" markerEnd="0" shadowEnabled="0" shadowOffsetX="0" shadowOffsetY="2" shadowBlur="4" shadowOpacity="160" blurEnabled="0" blurRadius="4" transform="matrix(1,0,0,1,87.5,51.2)" pers-center="0,0" pers-size="0,0" pers-start="0,0" pers-end="0,0" locked="0" mesh="" flag=""/>
            <path id="shapePath2" d="M62.955,45.2 L87.895,14.9 L112.045,45.27 L100.155,45.69 L99.425,76.19 L87.795,87.5 L75.405,75.29 L75.225,45.34 L62.955,45.2 Z" style="stroke:none;fill-rule:evenodd;fill:#fdfdfd;fill-opacity:1;"/>
        </g>
        <g id="Shape3">
            <desc shapeID="3" type="0" basicInfo-basicType="0" basicInfo-roundedRectRadius="12" basicInfo-polygonSides="6" basicInfo-starPoints="5" bounding="rect(-41.39,-48.7434,82.78,97.4868)" text="" font-familyName="" font-pixelSize="20" font-bold="0" font-underline="0" font-alignment="1" strokeStyle="0" markerStart="0" markerEnd="0" shadowEnabled="0" shadowOffsetX="0" shadowOffsetY="2" shadowBlur="4" shadowOpacity="160" blurEnabled="0" blurRadius="4" transform="matrix(1,0,0,1,116.609,111.108)" pers-center="0,0" pers-size="0,0" pers-start="0,0" pers-end="0,0" locked="0" mesh="" flag=""/>
            <path id="shapePath3" d="M121.129,62.3648 L157.999,74.5648 L139.839,107.755 L135.209,97.0448 C120.119,103.325 108.539,117.185 104.519,132.985 C102.239,141.715 100.439,150.695 100.669,159.765 L75.2185,159.835 C75.2185,160.359 75.9985,148.515 77.0885,142.935 C79.3667,131.272 81.7485,119.405 87.5285,108.915 C95.0085,94.4648 107.589,83.0848 121.959,75.6848 L125.864,73.846 L121.129,62.3648 Z" style="stroke:none;fill-rule:evenodd;fill:#fdfdfd;fill-opacity:1;"/>
        </g>
        <g id="Shape4">
            <desc shapeID="4" type="0" basicInfo-basicType="0" basicInfo-roundedRectRadius="12" basicInfo-polygonSides="6" basicInfo-starPoints="5" bounding="rect(-31.785,-31.365,63.57,62.73)" text="" font-familyName="" font-pixelSize="20" font-bold="0" font-underline="0" font-alignment="1" strokeStyle="0" markerStart="0" markerEnd="0" shadowEnabled="0" shadowOffsetX="0" shadowOffsetY="2" shadowBlur="4" shadowOpacity="160" blurEnabled="0" blurRadius="4" transform="matrix(1,0,0,1,48.6786,95.157)" pers-center="0,0" pers-size="0,0" pers-start="0,0" pers-end="0,0" locked="0" mesh="" flag=""/>
            <path id="shapePath4" d="M53.8636,63.792 L49.8336,74.552 C61.4936,80.462 72.4236,88.242 80.4636,98.672 C74.6436,107.032 71.2736,116.792 68.5436,126.522 C64.2636,117.302 57.9636,108.952 49.5536,103.132 L39.7136,98.072 L36.0936,107.432 L16.8936,74.332 L53.8636,63.792 Z" style="stroke:none;fill-rule:evenodd;fill:#fdfdfd;fill-opacity:1;"/>
        </g>
    </g>
</svg>

<svg xmlns="http://www.w3.org/2000/svg" width="175" height="175"><path d="M.963 87.32C.963 39.473 39.687.687 87.456.687c47.77 0 86.494 38.786 86.494 86.63 0 47.846-38.724 86.632-86.494 86.632S.963 135.16.963 87.32z" fill-rule="evenodd"/><path d="M62.955 45.2l24.94-30.3 24.15 30.37-11.89.42-.73 30.5-11.63 11.31-12.39-12.21-.18-29.95-12.27-.14zm58.175 17.165l36.87 12.2-18.16 33.19-4.63-10.71c-15.09 6.28-26.67 20.14-30.69 35.94-2.28 8.73-4.08 17.71-3.85 26.78l-25.45.07c0 .524.78-11.32 1.868-16.9 2.28-11.663 4.66-23.53 10.44-34.02 7.48-14.45 20.06-25.83 34.43-33.23l3.906-1.84-4.735-11.48zm-67.266 1.427l-4.03 10.76c11.66 5.91 22.59 13.69 30.63 24.12-5.82 8.36-9.19 18.12-11.92 27.85-4.28-9.22-10.58-17.57-18.99-23.39l-9.84-5.06-3.62 9.36-19.2-33.1 36.97-10.54z" fill-rule="evenodd" fill="#fdfdfd"/></svg>
